X: 23166
T: Le Petit Bal De La Marine
R: waltz
M: 3/4
K: Eminor
z2 E2 G2|B2 e2g2|"B,m"f6|e2 B2G2|F6|E2 F2G2|"Em"F4 E2-|E6|
z2 E2 G2|B2 e2g2|"B,m"f6|e2 B2G2|F6|E2 F2G2|"A,"B2 (A2 A2-|A6)|
z2 A2 B2|c2 B2A2|c2B2 A2|c2 B2A2|"Em"e2G2 A2|B2 A2G2|B2A2 G2|B2 A2G2|
e2 G2 A2|B2 A2G2|"B,m"F6-|F6|1 F4 A2-|A2 G4|F6-|F6:|2 A4 G2-|G2 F4|"Em"E2E2 B,2|E2 G2B2|e2||

